!!!OTL: 's Konzellerer Doerfl is scheibnkuglrund ja, da wenn ma auss'n ummigeht, nacha beisst oan koa Hund
!!!ARE: Europa, Mitteleuropa, Deutschland, Bayer. Wald, Konzell
!!!SCT: D0134
!!!YEM: Copyright 1995, estate of Helmut Schaffrath.
**kern
*ICvox
*Ivox
*M3/4
*k[f#c#g#]
*A:
=1
{4e
=2
8f#
8dd
8dd
8cc#
4b
=3
8a
8cc#
8cc#
8b
4a
=4
8g#
8b
8b
8cc#
4g#
=5
4a}
{8a
8b
8cc#
8e
=6
8f#
8dd
8dd
8cc#
4b
=7
8a
8cc#
8cc#
8b
4a
=8
8g#
8b
8b
8e
8cc#
8b
=9
4a}
{8a
8b
8cc#
8e
=10
8f#
8dd
8dd
8cc#
4b
=11
8a
8cc#
8cc#
8b
4a
=12
8g#
8b
8b
8e
8cc#
8b
=13
4a
4r}
==
!!!AGN: Heimat - Lied
!! zweistimmig (Sextparallelen und Terzen) ; Inzipit = Variante zum Lied
!!!ONB: ESAC (Essen Associative Code) Database: DVA
!!!AMT: simple triple
!!!AIN: vox
!!!EED: Helmut Schaffrath
!!!EEV: 1.0
*-
